assets/dude/Design–Merle.svg

<svg width="511" height="106" viewBox="0 0 511 106" fill="none" xmlns="http://www.w3.org/2000/svg">
<path d="M85.4823 39.98C85.4823 27.52 87.8623 14.78 87.8623 13.52C87.8623 12.26 86.7423 12.26 86.6023 12.26C81.7023 12.26 75.8223 9.17997 75.8223 2.45998C75.8223 1.19998 74.7023 1.19998 74.5623 1.19998C71.6223 1.19998 60.4223 2.73997 43.0623 2.73997C25.8423 2.73997 14.6423 1.19998 11.7023 1.19998C11.5623 1.19998 10.4423 1.19998 10.4423 2.45998C10.4423 6.93998 6.2423 10.02 1.6223 10.02C1.4823 10.02 0.362305 10.02 0.362305 11.28C0.362305 12.54 2.8823 25 2.8823 37.46C2.8823 38.16 3.4423 38.72 4.1423 38.72H18.0023C18.7023 38.72 19.2623 39.28 19.2623 39.98V65.74C19.2623 66.44 18.7023 67 18.0023 67H4.1423C3.4423 67 2.8823 67.56 2.8823 68.26C2.8823 80.72 0.362305 93.18 0.362305 94.44C0.362305 95.7 1.4823 95.7 1.6223 95.7C6.2423 95.7 10.4423 98.78 10.4423 103.26C10.4423 104.52 11.5623 104.52 11.7023 104.52C14.6423 104.52 25.8423 102.98 43.0623 102.98C60.4223 102.98 71.6223 104.52 74.5623 104.52C74.7023 104.52 75.8223 104.52 75.8223 103.26C75.8223 96.54 81.7023 93.46 86.6023 93.46C86.7423 93.46 87.8623 93.46 87.8623 92.2C87.8623 90.94 85.4823 78.2 85.4823 65.74V39.98ZM75.4023 55.8C75.4023 61.96 70.3623 67 64.2023 67H30.6023C29.9023 67 29.3423 66.44 29.3423 65.74V39.98C29.3423 39.28 29.9023 38.72 30.6023 38.72H64.2023C70.3623 38.72 75.4023 43.76 75.4023 49.92V55.8Z" fill="#FF1C31"/>
<path d="M179.421 60.84C179.421 60.14 178.861 59.58 178.161 59.58H170.881C170.181 59.58 169.621 60.14 169.621 60.84C169.621 64.34 166.821 66.72 163.321 66.72H123.981C123.281 66.72 122.721 66.16 122.721 65.46V57.9C122.721 57.2 123.281 56.64 123.981 56.64H135.741C136.441 56.64 137.001 57.2 137.001 57.9V59.16C137.001 59.86 137.561 60.42 138.261 60.42H157.161C157.861 60.42 158.421 59.86 158.421 59.16V46.56C158.421 45.86 157.861 45.3 157.161 45.3H138.261C137.561 45.3 137.001 45.86 137.001 46.56V47.82C137.001 48.52 136.441 49.08 135.741 49.08H123.981C123.281 49.08 122.721 48.52 122.721 47.82V40.26C122.721 39.56 123.281 39 123.981 39H163.321C166.821 39 169.621 41.38 169.621 44.88C169.621 45.58 170.181 46.14 170.881 46.14H178.161C178.861 46.14 179.421 45.58 179.421 44.88V37.74C179.421 25.28 181.941 12.54 181.941 11.28C181.941 10.02 180.821 10.02 180.681 10.02C176.061 10.02 171.861 5.95997 171.861 1.47997C171.861 0.21997 170.741 0.219971 170.601 0.219971C166.121 0.219971 155.061 2.59997 137.841 2.59997C120.621 2.59997 109.561 0.219971 105.081 0.219971C104.941 0.219971 103.821 0.21997 103.821 1.47997C103.821 5.95997 99.6212 10.02 95.0012 10.02C94.8612 10.02 93.7412 10.02 93.7412 11.28C93.7412 12.54 96.2612 25.28 96.2612 37.74C96.2612 38.44 96.8212 39 97.5212 39H111.381C112.081 39 112.641 39.56 112.641 40.26V65.46C112.641 66.16 112.081 66.72 111.381 66.72H97.5212C96.8212 66.72 96.2612 67.28 96.2612 67.98C96.2612 80.44 93.7412 93.18 93.7412 94.44C93.7412 95.7 94.8612 95.7 95.0012 95.7C99.6212 95.7 103.821 99.62 103.821 104.1C103.821 105.36 104.941 105.36 105.081 105.36C109.561 105.36 120.621 102.98 137.841 102.98C155.061 102.98 166.121 105.36 170.601 105.36C170.741 105.36 171.861 105.36 171.861 104.1C171.861 99.62 176.061 95.7 180.681 95.7C180.821 95.7 181.941 95.7 181.941 94.44C181.941 93.18 179.421 80.44 179.421 67.98V60.84Z" fill="#FF1C31"/>
<path d="M269.697 60.14C269.697 58.88 268.577 58.88 268.437 58.88C263.537 58.88 257.517 56.22 257.517 49.5C257.517 48.24 256.397 48.24 256.257 48.24C253.457 48.24 247.717 48.66 233.997 48.66C220.417 48.66 211.877 48.1 211.877 42.36C211.877 40.26 213.977 38.58 216.077 38.58H246.317C248.697 38.58 250.377 40.26 250.377 42.5C250.377 43.2 250.937 43.76 251.637 43.76H258.917C259.617 43.76 260.177 43.2 260.177 42.5V37.32C260.177 24.86 262.557 14.64 262.557 13.38C262.557 12.12 261.437 12.12 261.297 12.12C256.397 12.12 250.517 9.03997 250.517 2.31998C250.517 1.05998 249.397 1.05998 249.257 1.05998C246.317 1.05998 243.377 2.59997 226.157 2.59997C208.797 2.59997 206.837 1.05998 203.897 1.05998C203.757 1.05998 202.637 1.05998 202.637 2.31998C202.637 9.03997 196.757 12.12 191.857 12.12C191.717 12.12 190.597 12.12 190.597 13.38C190.597 14.36 192.697 20.66 192.697 28.78C192.697 36.9 190.597 45.86 190.597 46.84C190.597 48.1 191.717 48.1 191.857 48.1C196.757 48.1 203.897 50.9 203.897 57.62C203.897 58.88 205.017 58.88 205.157 58.88C207.817 58.88 212.017 57.62 223.357 57.62C234.697 57.62 248.417 56.36 248.417 63.5C248.417 65.6 246.737 67.14 244.637 67.14H206.697C203.197 67.14 200.397 64.76 200.397 61.26C200.397 60.56 199.837 60 199.137 60H191.857C191.157 60 190.597 60.56 190.597 61.26V69.24H190.457C190.457 81.7 188.077 91.92 188.077 93.18C188.077 94.44 189.197 94.44 189.337 94.44C194.237 94.44 200.117 97.52 200.117 104.24C200.117 105.5 201.237 105.5 201.377 105.5C204.317 105.5 212.017 103.96 229.377 103.96C246.597 103.96 253.317 105.5 256.257 105.5C256.397 105.5 257.517 105.5 257.517 104.24C257.517 97.52 263.397 94.44 268.297 94.44C268.437 94.44 269.557 94.44 269.557 93.18C269.557 92.2 267.457 86.88 267.457 76.8C267.457 66.72 269.697 61.26 269.697 60.14Z" fill="#FF1C31"/>
<path d="M319.404 66.72H305.544C304.844 66.72 304.284 66.16 304.284 65.46V40.26C304.284 39.7 304.704 39.14 305.264 39H319.404C320.104 39 320.664 38.44 320.664 37.74C320.664 25.28 323.184 12.54 323.184 11.28C323.184 10.02 322.064 10.02 321.924 10.02C317.304 10.02 313.104 6.93998 313.104 2.45998C313.104 1.19998 311.984 1.19998 311.844 1.19998C308.904 1.19998 304.984 2.45998 299.244 2.45998C293.504 2.45998 289.584 1.19998 286.644 1.19998C286.504 1.19998 285.384 1.19998 285.384 2.45998C285.384 6.93998 281.184 10.02 276.564 10.02C276.424 10.02 275.304 10.02 275.304 11.28C275.304 12.54 277.824 25.28 277.824 37.74C277.824 38.44 278.384 39 279.084 39H293.224C293.784 39.14 294.204 39.7 294.204 40.26V65.46C294.204 66.16 293.644 66.72 292.944 66.72H279.084C278.384 66.72 277.824 67.28 277.824 67.98C277.824 80.44 275.304 93.18 275.304 94.44C275.304 95.7 276.424 95.7 276.564 95.7C281.184 95.7 285.384 98.78 285.384 103.26C285.384 104.52 286.504 104.52 286.644 104.52C289.584 104.52 293.504 103.26 299.244 103.26C304.984 103.26 308.904 104.52 311.844 104.52C311.984 104.52 313.104 104.52 313.104 103.26C313.104 98.78 317.304 95.7 321.924 95.7C322.064 95.7 323.184 95.7 323.184 94.44C323.184 93.18 320.664 80.44 320.664 67.98C320.664 67.28 320.104 66.72 319.404 66.72Z" fill="#FF1C31"/>
<path d="M400.994 67.98V51.32C400.994 50.62 400.434 50.06 399.734 50.06H376.074C375.374 50.06 374.814 50.62 374.814 51.32V56.36C374.814 57.06 375.374 57.62 376.074 57.62H389.934C390.634 57.62 391.194 58.18 391.194 58.88V61.12C391.194 64.62 388.394 67 384.894 67H352.694C346.534 67 341.494 61.96 341.494 55.8V49.92C341.494 43.76 346.534 38.72 352.694 38.72H384.894C388.394 38.72 391.194 41.1 391.194 44.6C391.194 45.3 391.754 45.86 392.454 45.86H399.734C400.434 45.86 400.994 45.3 400.994 44.6V37.74C400.994 25.28 403.514 12.54 403.514 11.28C403.514 10.02 402.394 10.02 402.254 10.02C397.634 10.02 393.434 6.93998 393.434 2.45998C393.434 1.19998 392.314 1.19998 392.174 1.19998C389.234 1.19998 384.474 2.73997 367.254 2.73997C350.034 2.73997 345.274 1.19998 342.334 1.19998C342.194 1.19998 341.074 1.19998 341.074 2.45998C341.074 9.17997 335.194 12.26 330.294 12.26C330.154 12.26 329.034 12.26 329.034 13.52C329.034 14.78 331.414 27.52 331.414 39.98V65.74C331.414 78.2 329.034 90.94 329.034 92.2C329.034 93.46 330.154 93.46 330.294 93.46C335.194 93.46 341.074 96.54 341.074 103.26C341.074 104.52 342.194 104.52 342.334 104.52C345.274 104.52 349.894 102.98 367.254 102.98C384.474 102.98 389.234 104.52 392.174 104.52C392.314 104.52 393.434 104.52 393.434 103.26C393.434 98.78 397.634 95.7 402.254 95.7C402.394 95.7 403.514 95.7 403.514 94.44C403.514 93.18 400.994 80.44 400.994 67.98Z" fill="#FF1C31"/>
<path d="M508.965 10.02C504.345 10.02 500.145 6.93998 500.145 2.45998C500.145 1.19998 499.025 1.19998 498.885 1.19998C495.945 1.19998 492.025 2.45998 486.285 2.45998C480.545 2.45998 476.625 1.19998 473.685 1.19998C473.545 1.19998 472.425 1.19998 472.425 2.45998C472.425 6.93998 468.225 10.02 463.605 10.02C463.465 10.02 462.345 10.02 462.345 11.28C462.345 12.54 464.865 25.28 464.865 37.74C464.865 38.44 465.425 39 466.125 39H479.985C480.685 39 481.245 39.56 481.245 40.26V65.46C481.245 66.16 480.685 66.72 479.985 66.72H472.145C471.025 66.72 470.465 66.16 470.465 66.16L452.545 40.96C452.545 40.96 451.985 40.12 451.985 39.56C451.985 39.28 452.125 39 452.825 39H453.525C454.225 39 454.785 38.44 454.785 37.74C454.785 25.28 457.305 12.54 457.305 11.28C457.305 10.02 456.185 10.02 456.045 10.02C451.425 10.02 447.225 6.93998 447.225 2.45998C447.225 1.19998 446.105 1.19998 445.965 1.19998C443.025 1.19998 439.105 2.45998 433.365 2.45998C427.625 2.45998 423.705 1.19998 420.765 1.19998C420.625 1.19998 419.505 1.19998 419.505 2.45998C419.505 6.93998 415.305 10.02 410.685 10.02C410.545 10.02 409.425 10.02 409.425 11.28C409.425 12.54 411.945 25.28 411.945 37.74C411.945 38.44 412.505 39 413.205 39H427.065C427.765 39 428.325 39.56 428.325 40.26V65.46C428.325 66.16 427.765 66.72 427.065 66.72H413.205C412.505 66.72 411.945 67.28 411.945 67.98C411.945 80.44 409.425 93.18 409.425 94.44C409.425 95.7 410.545 95.7 410.685 95.7C415.305 95.7 419.505 98.78 419.505 103.26C419.505 104.52 420.625 104.52 420.765 104.52C423.705 104.52 427.625 103.26 433.365 103.26C439.105 103.26 443.025 104.52 445.965 104.52C446.105 104.52 447.225 104.52 447.225 103.26C447.225 98.78 451.425 95.7 456.045 95.7C456.185 95.7 457.305 95.7 457.305 94.44C457.305 93.18 454.785 80.44 454.785 67.98C454.785 67.28 454.225 66.72 453.525 66.72H439.665C438.965 66.72 438.405 66.16 438.405 65.46V41.1C438.405 40.54 438.685 40.26 438.965 40.26C439.665 40.26 440.365 41.38 440.365 41.38L482.225 99.9C483.065 101.16 484.605 102 486.285 102C489.085 102 491.325 99.76 491.325 96.96V40.26C491.325 39.56 491.885 39 492.585 39H506.445C507.145 39 507.705 38.44 507.705 37.74C507.705 25.28 510.225 12.54 510.225 11.28C510.225 10.02 509.105 10.02 508.965 10.02Z" fill="#FF1C31"/>
</svg>

<svg xmlns="http://www.w3.org/2000/svg" fill="none" viewBox="0 0 511 106"><path fill="#FF1C31" d="M85.482 39.98c0-12.46 2.38-25.2 2.38-26.46 0-1.26-1.12-1.26-1.26-1.26-4.9 0-10.78-3.08-10.78-9.8 0-1.26-1.12-1.26-1.26-1.26-2.94 0-14.14 1.54-31.5 1.54-17.22 0-28.42-1.54-31.36-1.54-.14 0-1.26 0-1.26 1.26 0 4.48-4.2 7.56-8.82 7.56-.14 0-1.26 0-1.26 1.26S2.882 25 2.882 37.46c0 .7.56 1.26 1.26 1.26h13.86c.7 0 1.26.56 1.26 1.26v25.76c0 .7-.56 1.26-1.26 1.26H4.142c-.7 0-1.26.56-1.26 1.26 0 12.46-2.52 24.92-2.52 26.18 0 1.26 1.12 1.26 1.26 1.26 4.62 0 8.82 3.08 8.82 7.56 0 1.26 1.12 1.26 1.26 1.26 2.94 0 14.14-1.54 31.36-1.54 17.36 0 28.56 1.54 31.5 1.54.14 0 1.26 0 1.26-1.26 0-6.72 5.88-9.8 10.78-9.8.14 0 1.26 0 1.26-1.26s-2.38-14-2.38-26.46V39.98zM75.402 55.8c0 6.16-5.04 11.2-11.2 11.2h-33.6c-.7 0-1.26-.56-1.26-1.26V39.98c0-.7.56-1.26 1.26-1.26h33.6c6.16 0 11.2 5.04 11.2 11.2v5.88zM179.421 60.84c0-.7-.56-1.26-1.26-1.26h-7.28c-.7 0-1.26.56-1.26 1.26 0 3.5-2.8 5.88-6.3 5.88h-39.34c-.7 0-1.26-.56-1.26-1.26V57.9c0-.7.56-1.26 1.26-1.26h11.76c.7 0 1.26.56 1.26 1.26v1.26c0 .7.56 1.26 1.26 1.26h18.9c.7 0 1.26-.56 1.26-1.26v-12.6c0-.7-.56-1.26-1.26-1.26h-18.9c-.7 0-1.26.56-1.26 1.26v1.26c0 .7-.56 1.26-1.26 1.26h-11.76c-.7 0-1.26-.56-1.26-1.26v-7.56c0-.7.56-1.26 1.26-1.26h39.34c3.5 0 6.3 2.38 6.3 5.88 0 .7.56 1.26 1.26 1.26h7.28c.7 0 1.26-.56 1.26-1.26v-7.14c0-12.46 2.52-25.2 2.52-26.46 0-1.26-1.12-1.26-1.26-1.26-4.62 0-8.82-4.06-8.82-8.54 0-1.26-1.12-1.26-1.26-1.26-4.48 0-15.54 2.38-32.76 2.38S109.561.22 105.081.22c-.14 0-1.26 0-1.26 1.26 0 4.48-4.2 8.54-8.82 8.54-.14 0-1.26 0-1.26 1.26s2.52 14 2.52 26.46c0 .7.56 1.26 1.26 1.26h13.86c.7 0 1.26.56 1.26 1.26v25.2c0 .7-.56 1.26-1.26 1.26h-13.86c-.7 0-1.26.56-1.26 1.26 0 12.46-2.52 25.2-2.52 26.46 0 1.26 1.12 1.26 1.26 1.26 4.62 0 8.82 3.92 8.82 8.4 0 1.26 1.12 1.26 1.26 1.26 4.48 0 15.54-2.38 32.76-2.38s28.28 2.38 32.76 2.38c.14 0 1.26 0 1.26-1.26 0-4.48 4.2-8.4 8.82-8.4.14 0 1.26 0 1.26-1.26s-2.52-14-2.52-26.46v-7.14zM269.697 60.14c0-1.26-1.12-1.26-1.26-1.26-4.9 0-10.92-2.66-10.92-9.38 0-1.26-1.12-1.26-1.26-1.26-2.8 0-8.54.42-22.26.42-13.58 0-22.12-.56-22.12-6.3 0-2.1 2.1-3.78 4.2-3.78h30.24c2.38 0 4.06 1.68 4.06 3.92 0 .7.56 1.26 1.26 1.26h7.28c.7 0 1.26-.56 1.26-1.26v-5.18c0-12.46 2.38-22.68 2.38-23.94 0-1.26-1.12-1.26-1.26-1.26-4.9 0-10.78-3.08-10.78-9.8 0-1.26-1.12-1.26-1.26-1.26-2.94 0-5.88 1.54-23.1 1.54-17.36 0-19.32-1.54-22.26-1.54-.14 0-1.26 0-1.26 1.26 0 6.72-5.88 9.8-10.78 9.8-.14 0-1.26 0-1.26 1.26 0 .98 2.1 7.28 2.1 15.4 0 8.12-2.1 17.08-2.1 18.06 0 1.26 1.12 1.26 1.26 1.26 4.9 0 12.04 2.8 12.04 9.52 0 1.26 1.12 1.26 1.26 1.26 2.66 0 6.86-1.26 18.2-1.26s25.06-1.26 25.06 5.88c0 2.1-1.68 3.64-3.78 3.64h-37.94c-3.5 0-6.3-2.38-6.3-5.88 0-.7-.56-1.26-1.26-1.26h-7.28c-.7 0-1.26.56-1.26 1.26v7.98h-.14c0 12.46-2.38 22.68-2.38 23.94 0 1.26 1.12 1.26 1.26 1.26 4.9 0 10.78 3.08 10.78 9.8 0 1.26 1.12 1.26 1.26 1.26 2.94 0 10.64-1.54 28-1.54 17.22 0 23.94 1.54 26.88 1.54.14 0 1.26 0 1.26-1.26 0-6.72 5.88-9.8 10.78-9.8.14 0 1.26 0 1.26-1.26 0-.98-2.1-6.3-2.1-16.38 0-10.08 2.24-15.54 2.24-16.66zM319.404 66.72h-13.86c-.7 0-1.26-.56-1.26-1.26v-25.2c0-.56.42-1.12.98-1.26h14.14c.7 0 1.26-.56 1.26-1.26 0-12.46 2.52-25.2 2.52-26.46 0-1.26-1.12-1.26-1.26-1.26-4.62 0-8.82-3.08-8.82-7.56 0-1.26-1.12-1.26-1.26-1.26-2.94 0-6.86 1.26-12.6 1.26-5.74 0-9.66-1.26-12.6-1.26-.14 0-1.26 0-1.26 1.26 0 4.48-4.2 7.56-8.82 7.56-.14 0-1.26 0-1.26 1.26s2.52 14 2.52 26.46c0 .7.56 1.26 1.26 1.26h14.14c.56.14.98.7.98 1.26v25.2c0 .7-.56 1.26-1.26 1.26h-13.86c-.7 0-1.26.56-1.26 1.26 0 12.46-2.52 25.2-2.52 26.46 0 1.26 1.12 1.26 1.26 1.26 4.62 0 8.82 3.08 8.82 7.56 0 1.26 1.12 1.26 1.26 1.26 2.94 0 6.86-1.26 12.6-1.26 5.74 0 9.66 1.26 12.6 1.26.14 0 1.26 0 1.26-1.26 0-4.48 4.2-7.56 8.82-7.56.14 0 1.26 0 1.26-1.26s-2.52-14-2.52-26.46c0-.7-.56-1.26-1.26-1.26zM400.994 67.98V51.32c0-.7-.56-1.26-1.26-1.26h-23.66c-.7 0-1.26.56-1.26 1.26v5.04c0 .7.56 1.26 1.26 1.26h13.86c.7 0 1.26.56 1.26 1.26v2.24c0 3.5-2.8 5.88-6.3 5.88h-32.2c-6.16 0-11.2-5.04-11.2-11.2v-5.88c0-6.16 5.04-11.2 11.2-11.2h32.2c3.5 0 6.3 2.38 6.3 5.88 0 .7.56 1.26 1.26 1.26h7.28c.7 0 1.26-.56 1.26-1.26v-6.86c0-12.46 2.52-25.2 2.52-26.46 0-1.26-1.12-1.26-1.26-1.26-4.62 0-8.82-3.08-8.82-7.56 0-1.26-1.12-1.26-1.26-1.26-2.94 0-7.7 1.54-24.92 1.54-17.22 0-21.98-1.54-24.92-1.54-.14 0-1.26 0-1.26 1.26 0 6.72-5.88 9.8-10.78 9.8-.14 0-1.26 0-1.26 1.26s2.38 14 2.38 26.46v25.76c0 12.46-2.38 25.2-2.38 26.46 0 1.26 1.12 1.26 1.26 1.26 4.9 0 10.78 3.08 10.78 9.8 0 1.26 1.12 1.26 1.26 1.26 2.94 0 7.56-1.54 24.92-1.54 17.22 0 21.98 1.54 24.92 1.54.14 0 1.26 0 1.26-1.26 0-4.48 4.2-7.56 8.82-7.56.14 0 1.26 0 1.26-1.26s-2.52-14-2.52-26.46zM508.965 10.02c-4.62 0-8.82-3.08-8.82-7.56 0-1.26-1.12-1.26-1.26-1.26-2.94 0-6.86 1.26-12.6 1.26-5.74 0-9.66-1.26-12.6-1.26-.14 0-1.26 0-1.26 1.26 0 4.48-4.2 7.56-8.82 7.56-.14 0-1.26 0-1.26 1.26s2.52 14 2.52 26.46c0 .7.56 1.26 1.26 1.26h13.86c.7 0 1.26.56 1.26 1.26v25.2c0 .7-.56 1.26-1.26 1.26h-7.84c-1.12 0-1.68-.56-1.68-.56l-17.92-25.2s-.56-.84-.56-1.4c0-.28.14-.56.84-.56h.7c.7 0 1.26-.56 1.26-1.26 0-12.46 2.52-25.2 2.52-26.46 0-1.26-1.12-1.26-1.26-1.26-4.62 0-8.82-3.08-8.82-7.56 0-1.26-1.12-1.26-1.26-1.26-2.94 0-6.86 1.26-12.6 1.26-5.74 0-9.66-1.26-12.6-1.26-.14 0-1.26 0-1.26 1.26 0 4.48-4.2 7.56-8.82 7.56-.14 0-1.26 0-1.26 1.26s2.52 14 2.52 26.46c0 .7.56 1.26 1.26 1.26h13.86c.7 0 1.26.56 1.26 1.26v25.2c0 .7-.56 1.26-1.26 1.26h-13.86c-.7 0-1.26.56-1.26 1.26 0 12.46-2.52 25.2-2.52 26.46 0 1.26 1.12 1.26 1.26 1.26 4.62 0 8.82 3.08 8.82 7.56 0 1.26 1.12 1.26 1.26 1.26 2.94 0 6.86-1.26 12.6-1.26 5.74 0 9.66 1.26 12.6 1.26.14 0 1.26 0 1.26-1.26 0-4.48 4.2-7.56 8.82-7.56.14 0 1.26 0 1.26-1.26s-2.52-14-2.52-26.46c0-.7-.56-1.26-1.26-1.26h-13.86c-.7 0-1.26-.56-1.26-1.26V41.1c0-.56.28-.84.56-.84.7 0 1.4 1.12 1.4 1.12l41.86 58.52c.84 1.26 2.38 2.1 4.06 2.1 2.8 0 5.04-2.24 5.04-5.04v-56.7c0-.7.56-1.26 1.26-1.26h13.86c.7 0 1.26-.56 1.26-1.26 0-12.46 2.52-25.2 2.52-26.46 0-1.26-1.12-1.26-1.26-1.26z"/></svg>
